!!!OTL: 699a. Absage.
!!!ODT: 1854
!!!ARE: Europa, Mitteleuropa, Deutschland, Mittelmark, Gransee
!!!SCT: E0699A
!!!TXL: @@DE
!!!YEM: Copyright 1995, estate of Helmut Schaffrath.
**kern	**text
*ICvox	*
*M3/4	*
*k[f#]	*
*G:	*
=1	=1
!LO:TX:a:t=Mäßig.	!
!LO:TX:a:t=Aus der Mittelmark (Granſee) 1854.	!
{8.g	Willſt
16d	du
8d	mich
8d	denn
8e	nicht
8f#	mehr
=2	=2
8gL	lie-
8bJ	.
4b	-ben,
4r}	.
=3	=3
{8.cc	ei,
16d	ſo
8d	magſt
8d	du's
8e	laſ-
8f#	-ſen
=4	=4
2g	ſein;
4r}	.
=5	=5
{8.g	ich
16a	werd
8b	mich
8b	drum
8a	nicht
8b	be-
=6	=6
4dd	-trü-
4cc	-ben,
4r}	.
=7	=7
{8.a	ich
16a	leb
8a	ganʒ
8ee	für
8ee	mich
8f#	al-
=8	=8
2g	-lein.
4r}	.
==	==
!!!AGN: Liebes - Lied, Leid, Klage
!!!ONB: ESAC (Essen Associative Code) Database: ERK2
!!!AMT: simple triple
!!!AIN: vox
!!!EED: Helmut Schaffrath
!!!EEV: 1.0
!!!GTL: Liebeslieder [Neuere (aus dem 18. bis 19. Jahrh.) - Liebesleid] 678-740
!!!URL-scan: https://rosdok.uni-rostock.de/mcrviewer/recordIdentifier/rosdok_ppn745177662/iview2/phys_0502.iview2?x=152.6445073938969&y=777.6246933147777&scale=0.7029437510502773&rotation=0&layout=singlePageLayout
!!!ENC: Anna Maria Matuszewska
!!!EEV: 2024/12/16
*-	*-
